X: 3045
T: GLENMORISTON
Q:"Strathspey."
R: Strathspey.
%R:strathspey
B: James Kerr "Merry Melodies" v.3 p.7 #45
Z: 2016 John Chambers <jc:trillian.mit.edu>
M: C
L: 1/16
K: G
uE2 |\
D3G (TG2FG) D3GB,3G | G,3G (TG2FG) B3AAB3 |\
D3G (TG2FG) D3GB,3G | D3EG3A BG3 G2 :|
|: (Bc) |\
dB3 g3B d3gB3g | g3dB3G F3A A2(Bc) |\
dB3 g3B d3gB3g | D3EG3A BG3 G2 :|

%%sep 1 1 500
%%sep 1 1 500

